X:509
T:Quant li loussignolz jolis
Z:Jack Campin, http://www.campin.me.uk/
F:Jack Campin's Nine-Note Tunebook
% last edit 03-02-2013
G:troubadour song
M:3/4
L:1/8
Q:3/4=40
K:DMin
   d2     (c2 A2)|   B2   (AGF2)| G2  (A2G2)|(G2 F4)   |
[1 F2      G4    |   A2   (A2B2)|(cB) (A2G2)| A6      :|
[2 F2     (G2 AB)|  (AG)  (FED2)| C2  (C2D2)| D6      ||
   E2      F4    |  (GF)   E4   | D2   EFED | C6       |
  (GA/B/) (A2 G2)|(3(FED) (EFED)| C2  (C2D2)| D6       |
   A2      c4    |   c2    c4   | c2   c4   |(c=BGA B2)|
(3(cdc)    A4    |   B2   (AGF2)| G2   A2G2 |(G2 F4)   |
   F2      G4    |   A2    B4   | A2  (G2F2)|(ED C4)   |
   F2     (G2 AB)|   AG    FED2 | C2  (C2D2)| D6      |]

